X:1
T:The Green Willow Tree
F:http://www.folkinfo.org/songs
B:The Penguin Book of Canadian Folk Songs.
S:
M:4/4
L:1/4
K:F
C|F3/4 F1/4 F (D C)|F3/4 F1/4 F1/2 A1/2 c A3/4 A1/4|
w:There was a ship sai-led on the North-ern Sea, And the
G G3/4 G1/4 G C3/4 C1/4|G G1/2 A1/2 c A1/2 G1/2|
w:name of the ship was the Green Wil-low tree, As she
F F3/4 F1/4 D C1/2 C1/2|F A c A3/4 A1/4|
w:sailed on the low-lands that lie so low, As she
G G3/4 F1/4 C D |F3 ||
w:sailed on the low-lands low. 